src/assets/SVG/Black logo mark.svg

<svg width="89" height="106" viewBox="0 0 89 106" fill="none" xmlns="http://www.w3.org/2000/svg">
<g clip-path="url(#clip0_1560_14362)">
<path d="M88.4898 35.73L84.1998 61.46L81.7298 76.32C81.5156 77.5666 81.1495 78.7823 80.6398 79.94C79.4709 82.6185 77.5449 84.8971 75.0986 86.496C72.6524 88.0949 69.7923 88.9443 66.8698 88.94H30.1698H29.2998C26.8261 88.7965 24.426 88.0452 22.3119 86.7527C20.1979 85.4602 18.4352 83.6663 17.1798 81.53C16.184 79.831 15.5348 77.9514 15.2698 76L13.6198 64.88L12.3998 56.54L9.99984 40.35L9.31984 35.61C9.16384 34.6205 9.26721 33.6075 9.61984 32.67C8.38455 26.7981 5.04487 21.5805 0.229837 18C0.142389 17.9466 0.0709637 17.8705 0.0230799 17.7799C-0.024804 17.6893 -0.0473751 17.5875 -0.0422575 17.4851C-0.0371398 17.3828 -0.00452282 17.2837 0.0521601 17.1983C0.108843 17.113 0.187495 17.0444 0.279837 17L7.14984 13C11.8936 17.1475 15.3354 22.5794 17.0598 28.64C17.0598 28.75 17.1298 28.87 17.1698 28.98C17.1646 29.0599 17.1646 29.1401 17.1698 29.22C17.1698 29.75 17.1198 30.33 17.1198 31.01C17.1198 31.28 17.1198 31.57 17.1198 31.84C17.1198 32.11 17.1198 32.69 17.1798 33.26C17.1798 33.41 17.1798 33.56 17.1798 33.71C17.1798 34.09 17.2498 34.47 17.2898 34.83V35.28C17.3196 35.4218 17.3397 35.5655 17.3498 35.71C17.3498 35.9 17.4098 36.07 17.4298 36.24C17.5198 36.84 17.6198 37.39 17.7298 37.93C17.7798 38.12 17.8098 38.3 17.8598 38.49C17.9098 38.68 17.8598 38.69 17.9298 38.81C17.9998 38.93 17.9298 38.87 17.9298 38.9V38.96C17.9898 39.18 18.0398 39.39 18.0998 39.6C18.2298 40.09 18.3598 40.6 18.5098 41.01V41.12C18.5354 41.2049 18.5654 41.2883 18.5998 41.37C18.649 41.5633 18.7091 41.7536 18.7798 41.94C18.9498 42.4 19.1298 42.88 19.3298 43.37C19.6098 44.06 19.9298 44.76 20.3298 45.47C20.4498 45.71 20.5698 45.95 20.7198 46.23C21.0798 46.89 21.4198 47.47 21.7198 48.02C21.8298 48.17 21.9298 48.34 22.0498 48.5L22.2598 48.8C22.3698 48.97 22.4998 49.14 22.6198 49.32C23.0898 49.99 23.6198 50.67 24.1598 51.32C24.3098 51.51 24.4798 51.7 24.6798 51.94L24.9898 52.29L25.5198 52.86L25.6398 52.99L26.3598 53.73C27.2332 54.5915 28.1546 55.4028 29.1198 56.16C30.2507 57.0536 31.4437 57.8657 32.6898 58.59L33.2798 58.93L33.4298 59.01C33.8898 59.27 34.3298 59.49 34.7498 59.68C34.9398 59.78 35.1298 59.88 35.2898 59.95H35.3498L35.5598 60.03C35.7506 60.1323 35.9477 60.2225 36.1498 60.3C36.7898 60.59 37.4598 60.84 38.2298 61.11C38.6298 61.25 38.9698 61.35 39.2298 61.44C39.7298 61.61 40.2298 61.76 40.8698 61.91H40.9798H41.1698L41.6698 62.03C41.7395 62.0392 41.8101 62.0392 41.8798 62.03L42.5298 62.17L43.7798 62.39L44.9998 62.9H45.1698H45.3598C45.5898 62.9 45.8298 62.96 46.0598 62.99C47.2098 63.1 48.4098 63.17 49.6198 63.18H50.1198C59.0398 63.18 66.4198 60.42 72.0598 54.95C73.2807 53.7762 74.3888 52.4905 75.3698 51.11C75.5398 50.88 75.6998 50.63 75.8498 50.4C76.3533 49.6514 76.8173 48.877 77.2398 48.08L77.6598 47.22C78.0598 46.37 78.4398 45.49 78.7698 44.56C78.8798 44.26 78.9798 43.94 79.0698 43.63C79.1598 43.32 79.2598 43.01 79.3498 42.72C79.4298 42.41 79.5098 42.11 79.5798 41.81C80.8795 38.352 81.5664 34.6939 81.6098 31C81.6098 30.26 81.6098 29.49 81.5198 28.72H82.5898C83.1367 28.7405 83.6782 28.8346 84.1998 29C85.6158 29.4006 86.8351 30.3075 87.6261 31.5483C88.417 32.7891 88.7244 34.2773 88.4898 35.73Z" fill="#402984"/>
<path d="M75.6997 92.5703V100.14H72.9997C72.9321 98.3754 72.1835 96.7053 70.9109 95.4806C69.6384 94.2558 67.9409 93.5716 66.1747 93.5716C64.4085 93.5716 62.711 94.2558 61.4384 95.4806C60.1659 96.7053 59.4173 98.3754 59.3497 100.14H38.8397C38.7721 98.3754 38.0235 96.7053 36.7509 95.4806C35.4784 94.2558 33.7809 93.5716 32.0147 93.5716C30.2485 93.5716 28.551 94.2558 27.2784 95.4806C26.0059 96.7053 25.2573 98.3754 25.1897 100.14H20.4297V92.5703H75.6997Z" fill="#402984"/>
<path d="M37.0606 100.14C37.0605 101.126 36.7685 102.091 36.2212 102.912C35.674 103.733 34.8961 104.374 33.9853 104.754C33.0746 105.134 32.0719 105.236 31.1033 105.047C30.1348 104.858 29.2439 104.387 28.5426 103.692C27.8414 102.998 27.3613 102.112 27.1628 101.145C26.9643 100.179 27.0562 99.1751 27.427 98.2606C27.7977 97.3462 28.4308 96.5619 29.2465 96.0065C30.0621 95.4511 31.0238 95.1495 32.0105 95.1396C33.3405 95.1422 34.6159 95.6682 35.561 96.6039C36.5061 97.5396 37.0448 98.8098 37.0606 100.14Z" fill="#402984"/>
<path d="M32.0008 95.1096C31.0141 95.1195 30.0523 95.4211 29.2367 95.9765C28.421 96.5318 27.788 97.3161 27.4172 98.2306C27.0464 99.1451 26.9545 100.149 27.153 101.115C27.3516 102.082 27.8317 102.968 28.5329 103.662C29.2341 104.357 30.1251 104.828 31.0936 105.017C32.0621 105.206 33.0649 105.104 33.9756 104.724C34.8863 104.344 35.6643 103.703 36.2115 102.882C36.7587 102.061 37.0507 101.096 37.0508 100.11C37.0508 99.4488 36.9199 98.7945 36.6655 98.1846C36.4111 97.5747 36.0383 97.0212 35.5687 96.5563C35.0991 96.0913 34.542 95.7241 33.9296 95.4758C33.3171 95.2275 32.6616 95.103 32.0008 95.1096Z" fill="#402984"/>
<path d="M71.1992 100.14C71.1992 101.129 70.906 102.095 70.3566 102.918C69.8072 103.74 69.0263 104.381 68.1126 104.759C67.199 105.137 66.1937 105.237 65.2238 105.044C64.2539 104.851 63.363 104.374 62.6637 103.675C61.9644 102.976 61.4882 102.085 61.2953 101.115C61.1024 100.145 61.2014 99.1399 61.5798 98.2262C61.9583 97.3126 62.5991 96.5317 63.4214 95.9823C64.2436 95.4329 65.2103 95.1396 66.1992 95.1396C67.5205 95.1552 68.7832 95.687 69.7175 96.6213C70.6519 97.5557 71.1836 98.8184 71.1992 100.14Z" fill="#402984"/>
<path d="M80.4505 31C80.4584 34.4973 79.87 37.9704 78.7105 41.27L78.6105 41.58C78.6105 41.8 78.5006 42.01 78.4406 42.23V42.4C78.3605 42.69 78.2605 42.99 78.1705 43.3C78.0805 43.61 77.9905 43.85 77.8805 44.17C77.5725 45.0461 77.2152 45.9041 76.8105 46.74C76.6805 47.02 76.5406 47.29 76.4106 47.54C76.0137 48.3113 75.573 49.0592 75.0905 49.78C74.9405 49.98 74.7906 50.22 74.6206 50.45C73.6787 51.7682 72.6212 52.9997 71.4605 54.13C66.0005 59.41 58.8905 62.08 50.2805 62.08H49.6605C48.4805 62.08 47.3305 61.99 46.1805 61.88C45.9605 61.88 45.7505 61.88 45.5005 61.81H45.1705L44.1705 61.66C43.7705 61.6 43.3705 61.53 42.9605 61.44C42.7505 61.44 42.5405 61.36 42.2905 61.31L41.3505 61C40.7605 60.86 40.2505 60.73 39.7505 60.56C39.4505 60.48 39.1405 60.38 38.7505 60.25C38.0105 59.98 37.3505 59.73 36.7505 59.47H36.6205L36.1905 59.27L35.8905 59.13L35.3505 58.88C34.9505 58.69 34.5505 58.48 34.1205 58.24L34.0005 58.13L33.4305 57.82C32.2378 57.1151 31.092 56.3334 30.0005 55.48C29.0773 54.7429 28.1928 53.9585 27.3505 53.13C27.0905 52.87 26.8705 52.65 26.6805 52.44L26.5305 52.26C26.3397 52.0873 26.1625 51.9 26.0005 51.7C25.8938 51.6066 25.7966 51.5027 25.7105 51.39C25.5205 51.17 25.3605 50.99 25.2105 50.8C24.6805 50.16 24.2105 49.52 23.7305 48.87C23.6205 48.72 23.5305 48.58 23.4305 48.43L23.3405 48.3L23.2305 48.15L23.1305 48L22.8305 47.55C22.5005 47.04 22.1805 46.47 21.8305 45.84C21.6905 45.58 21.5805 45.35 21.4605 45.1C21.1205 44.46 20.8105 43.79 20.5305 43.1C20.3505 42.61 20.1605 42.1 20.0005 41.67L19.8005 41.09L19.7105 40.79C19.5705 40.38 19.4505 39.91 19.3205 39.43C19.2578 39.23 19.2077 39.0263 19.1705 38.82L19.1205 38.67C19.1205 38.59 19.1205 38.51 19.0505 38.34C18.9805 38.17 18.9705 37.99 18.9405 37.82C18.8305 37.3 18.7405 36.82 18.6505 36.18L18.4605 34.78C18.4605 34.44 18.3905 34.08 18.3705 33.7C18.3705 33.57 18.3705 33.43 18.3705 33.27C18.3705 32.72 18.3105 32.27 18.3105 31.88C18.3105 31.61 18.3105 31.35 18.3105 31.09C18.3105 30.43 18.3105 29.88 18.3105 29.3V28.79C18.7067 21.3125 21.8849 14.2535 27.2205 9C28.0998 8.1342 29.028 7.31953 30.0005 6.56C31.0973 5.69993 32.2462 4.90842 33.4405 4.19C37.3708 1.90407 41.7671 0.536623 46.3005 0.19L46.8805 0.13H47.0005L47.8605 0H48.7505H50.2305C55.3075 0.0440457 60.2964 1.3316 64.7606 3.75C68.8735 5.92171 72.3899 9.07068 75.0005 12.92L66.4806 17.83C64.7904 15.432 62.5379 13.4852 59.9205 12.16C56.8002 10.5175 53.3268 9.65948 49.8005 9.66C49.7075 9.65044 49.6136 9.65044 49.5205 9.66C48.3431 9.64919 47.1665 9.72607 46.0005 9.89C41.5053 10.4396 37.3374 12.5236 34.2005 15.79C33.3903 16.5813 32.6539 17.4449 32.0005 18.37C30.0671 21.1338 28.8444 24.3313 28.4405 27.68H28.2005V30C28.2005 30.34 28.2005 30.71 28.2005 31.15C28.2005 31.59 28.2005 31.93 28.2005 32.27C28.3185 36.3641 29.6402 40.3327 32.0005 43.68C32.685 44.6412 33.4476 45.5442 34.2805 46.38C37.4677 49.4498 41.5537 51.4192 45.9405 52C47.1555 52.1847 48.3818 52.285 49.6105 52.3H50.3705C53.8951 52.39 57.3938 51.6753 60.6005 50.21H60.7005C61.3626 49.8759 62.0038 49.5019 62.6205 49.09C64.9456 47.565 66.8395 45.4679 68.1206 43C68.6403 42.017 69.0623 40.9854 69.3805 39.92L69.8405 38.41H50.7505V29.85H80.4205C80.4505 30.24 80.4505 30.63 80.4505 31Z" fill="#402984"/>
</g>
<defs>
<clipPath id="clip0_1560_14362">
<rect width="88.58" height="105.19" fill="white"/>
</clipPath>
</defs>
</svg>

<svg xmlns="http://www.w3.org/2000/svg" viewBox="0 0 88.58 105.19"><defs><style>.cls-1{fill:#402984;}</style></defs><g id="Layer_2" data-name="Layer 2"><g id="Layer_1-2" data-name="Layer 1"><path class="cls-1" d="M88.49,35.73,84.2,61.46,81.73,76.32a15.5,15.5,0,0,1-1.09,3.62,15,15,0,0,1-13.77,9H30.17l-.87,0a15.07,15.07,0,0,1-12.12-7.41A14.9,14.9,0,0,1,15.27,76L13.62,64.88,12.4,56.54,10,40.35l-.68-4.74a5.79,5.79,0,0,1,.3-2.94A24.59,24.59,0,0,0,.23,18a.57.57,0,0,1,.05-1l6.87-4a32.64,32.64,0,0,1,9.91,15.64c0,.11.07.23.11.34a1.85,1.85,0,0,0,0,.24c0,.53-.05,1.11-.05,1.79,0,.27,0,.56,0,.83s0,.85.06,1.42c0,.15,0,.3,0,.45,0,.38.07.76.11,1.12l0,.45a3.18,3.18,0,0,1,.06.43c0,.19.06.36.08.53v0c.09.6.19,1.15.3,1.69.05.19.08.37.13.56s0,.2.07.32,0,.06,0,.09v.06c.06.22.11.43.17.64h0c.13.49.26,1,.41,1.41l0,.11a2.5,2.5,0,0,0,.09.25,5.27,5.27,0,0,0,.18.57c.17.46.35.94.55,1.43.28.69.6,1.39,1,2.1.12.24.24.48.39.76.36.66.7,1.24,1,1.79.11.15.21.32.33.48v0l.21.3c.11.17.24.34.36.52.47.67,1,1.35,1.54,2,.15.19.32.38.52.62l.31.35.53.57.12.13.72.74a32.44,32.44,0,0,0,2.76,2.43,30.4,30.4,0,0,0,3.57,2.43l.59.34.15.08c.46.26.9.48,1.32.67.19.1.38.2.54.27l.06,0,.21.08a5.15,5.15,0,0,0,.59.27h0c.64.29,1.31.54,2.08.81.4.14.74.24,1,.33.5.17,1,.32,1.64.47l.11,0,.19,0,.5.12a.8.8,0,0,0,.21,0l.65.14,1.25.22L45,62.9l.17,0h.19c.23,0,.47.06.7.09,1.15.11,2.35.18,3.56.19h0l0,0,0,0h0l0,0,0,0h.5c8.92,0,16.3-2.76,21.94-8.23a27.12,27.12,0,0,0,3.31-3.84c.17-.23.33-.48.48-.71a25.87,25.87,0,0,0,1.39-2.32l.42-.86c.4-.85.78-1.73,1.11-2.66.11-.3.21-.62.3-.93s.19-.62.28-.91v0h0c.08-.31.16-.61.23-.91,0,0,0,0,0,0A31.79,31.79,0,0,0,81.61,31c0-.74,0-1.51-.09-2.28h1.07A6.08,6.08,0,0,1,84.2,29,6,6,0,0,1,88.49,35.73Z"/><path class="cls-1" d="M75.7,92.57v7.57H73a6.83,6.83,0,0,0-13.65,0H38.84a6.83,6.83,0,0,0-13.65,0H20.43V92.57Z"/><path class="cls-1" d="M37.06,100.14a5,5,0,1,1-5.05-5A5.06,5.06,0,0,1,37.06,100.14Z"/><path class="cls-1" d="M32,95.11a5,5,0,1,0,5.05,5A5,5,0,0,0,32,95.11Z"/><path class="cls-1" d="M71.2,100.14a5,5,0,1,1-5-5A5.06,5.06,0,0,1,71.2,100.14Z"/><path class="cls-1" d="M80.45,31a30.77,30.77,0,0,1-1.74,10.27l-.1.31c0,.22-.11.43-.17.65l0,.17c-.08.29-.18.59-.27.9s-.18.55-.29.87a24.71,24.71,0,0,1-1.07,2.57c-.13.28-.27.55-.4.8a22.69,22.69,0,0,1-1.32,2.24c-.15.2-.3.44-.47.67a27.24,27.24,0,0,1-3.16,3.68C66,59.41,58.89,62.08,50.28,62.08h-.62c-1.18,0-2.33-.09-3.48-.2-.22,0-.43,0-.68-.07l-.33,0-1-.15c-.4-.06-.8-.13-1.21-.22-.21,0-.42-.08-.67-.13L41.35,61c-.59-.14-1.1-.27-1.6-.44-.3-.08-.61-.18-1-.31-.74-.27-1.4-.52-2-.78l-.13,0-.43-.2-.3-.14-.54-.25c-.4-.19-.8-.4-1.23-.64L34,58.13l-.57-.31A32,32,0,0,1,30,55.48a34.27,34.27,0,0,1-2.65-2.35c-.26-.26-.48-.48-.67-.69h0l-.15-.18A5,5,0,0,1,26,51.7a2.13,2.13,0,0,1-.29-.31c-.19-.22-.35-.4-.5-.59-.53-.64-1-1.28-1.48-1.93-.11-.15-.2-.29-.3-.44l-.09-.13-.11-.15L23.13,48l-.3-.45c-.33-.51-.65-1.08-1-1.71-.14-.26-.25-.49-.37-.74-.34-.64-.65-1.31-.93-2-.18-.49-.37-1-.53-1.43l-.2-.58-.09-.3c-.14-.41-.26-.88-.39-1.36a5,5,0,0,1-.15-.61l-.05-.15c0-.08,0-.16-.07-.33s-.08-.35-.11-.52c-.11-.52-.2-1-.29-1.64l-.19-1.4c0-.34-.07-.7-.09-1.08,0-.13,0-.27,0-.43,0-.55-.06-1-.06-1.39,0-.27,0-.53,0-.79,0-.66,0-1.21,0-1.79l0-.51A30,30,0,0,1,27.22,9,32.28,32.28,0,0,1,30,6.56a33.85,33.85,0,0,1,3.44-2.37,30.15,30.15,0,0,1,12.86-4l.58-.06H47L47.86,0l.89,0h1.48A31.07,31.07,0,0,1,64.76,3.75,28.39,28.39,0,0,1,75,12.92l-8.52,4.91a17.94,17.94,0,0,0-6.56-5.67,21.72,21.72,0,0,0-10.12-2.5,1.37,1.37,0,0,0-.28,0A23.72,23.72,0,0,0,46,9.89a19.67,19.67,0,0,0-11.8,5.9A18.62,18.62,0,0,0,32,18.37a20.53,20.53,0,0,0-3.56,9.31H28.2V30c0,.34,0,.71,0,1.15s0,.78,0,1.12A20.84,20.84,0,0,0,32,43.68a21.45,21.45,0,0,0,2.28,2.7A20.73,20.73,0,0,0,45.94,52a26.58,26.58,0,0,0,3.67.3l.76,0A23.19,23.19,0,0,0,60.6,50.21l.1,0a18.31,18.31,0,0,0,1.92-1.12A16.22,16.22,0,0,0,68.12,43a17,17,0,0,0,1.26-3.08l.46-1.51H50.75V29.85H80.42C80.45,30.24,80.45,30.63,80.45,31Z"/></g></g></svg>
